img/svg/landingsside/id-kort.svg

<svg width="24" height="17" viewBox="0 0 24 17" xmlns="http://www.w3.org/2000/svg"><g stroke="#000" fill="none" fill-rule="evenodd" stroke-linejoin="round"><path d="M.5.5v16h4v-.75c0-.962.787-1.75 1.75-1.75.962 0 1.75.788 1.75 1.75v.75h8v-.75c0-.962.787-1.75 1.75-1.75.962 0 1.75.788 1.75 1.75v.75h4V.5H.5z"/><circle cx="7" cy="5.5" r="2"/><path d="M7 7.5c-2.5 0-3.5 1.5-3.5 3h7c0-1.5-1-3-3.5-3zm6 3h8-8zm0-2h8-8zm0-2h8-8zm0-2h4-4z"/></g></svg>

<?xml version="1.0" encoding="UTF-8"?>
<svg width="24px" height="17px" viewBox="0 0 24 17" version="1.1" xmlns="http://www.w3.org/2000/svg" xmlns:xlink="http://www.w3.org/1999/xlink">
    <!-- Generator: Sketch 48.1 (47250) - http://www.bohemiancoding.com/sketch -->
    <title>id card 1</title>
    <desc>Created with Sketch.</desc>
    <defs></defs>
    <g id="Din-arbeidssituasjon" stroke="none" stroke-width="1" fill="none" fill-rule="evenodd" transform="translate(-50.000000, -856.000000)" stroke-linejoin="round">
        <g id="id-card-1" transform="translate(50.000000, 856.000000)" stroke="#000000">
            <path d="M0.5,0.5 L0.5,16.5 L4.5,16.5 L4.5,15.75 C4.5,14.788 5.287,14 6.25,14 C7.212,14 8,14.788 8,15.75 L8,16.5 L16,16.5 L16,15.75 C16,14.788 16.787,14 17.75,14 C18.712,14 19.5,14.788 19.5,15.75 L19.5,16.5 L23.5,16.5 L23.5,0.5 L0.5,0.5 Z" id="Shape"></path>
            <circle id="Oval" cx="7" cy="5.5" r="2"></circle>
            <path d="M7,7.5 C4.5,7.5 3.5,9 3.5,10.5 L10.5,10.5 C10.5,9 9.5,7.5 7,7.5 Z M13,10.5 L21,10.5 L13,10.5 Z M13,8.5 L21,8.5 L13,8.5 Z M13,6.5 L21,6.5 L13,6.5 Z M13,4.5 L17,4.5 L13,4.5 Z" id="Shape"></path>
        </g>
    </g>
</svg>
